svg/fluentui-system-icons/ic_fluent_arrow_circle_left_32_filled.svg

<svg width="32" height="32" viewBox="0 0 32 32" fill="none" xmlns="http://www.w3.org/2000/svg">
<path d="M30 16C30 23.732 23.732 30 16 30C8.26801 30 2 23.732 2 16C2 8.26801 8.26801 2 16 2C23.732 2 30 8.26801 30 16ZM16.7071 22.7071C17.0976 22.3166 17.0976 21.6834 16.7071 21.2929L12.4142 17L22 17C22.5523 17 23 16.5523 23 16C23 15.4477 22.5523 15 22 15L12.4142 15L16.7071 10.7071C17.0976 10.3166 17.0976 9.68342 16.7071 9.29289C16.3166 8.90237 15.6834 8.90237 15.2929 9.29289L9.29289 15.2929C8.90237 15.6834 8.90237 16.3166 9.29289 16.7071L15.2929 22.7071C15.6834 23.0976 16.3166 23.0976 16.7071 22.7071Z" fill="#212121"/>
</svg>

<svg xmlns="http://www.w3.org/2000/svg" width="32" height="32"><path d="M30 16c0 7.732-6.268 14-14 14S2 23.732 2 16 8.268 2 16 2s14 6.268 14 14Zm-13.293 6.707a1 1 0 0 0 0-1.414L12.414 17H22a1 1 0 1 0 0-2h-9.586l4.293-4.293a1 1 0 0 0-1.414-1.414l-6 6a1 1 0 0 0 0 1.414l6 6a1 1 0 0 0 1.414 0Z"/></svg>
